X: 54
T: Missa Prolationum / Gloria
N: Derived from Ock1011b-Missa_Prolationum-Gloria.krn
C: Johannes Ockeghem
%%abc-version 2.0
%%abcx-abcm2ps-target-version 5.9.1 (29 Sep 2008)
%%abc-creator hum2abc beta
%%abcx-conversion-date 2019/02/17 07:26:15
%%abc-edited-by Will Watson
%%abc-edited-by Chris Gage 08-16-2012, Will Watson
%%abcx-initial-encoding-date 2014/05/13/
%%humdrum-veritas 2339768791
%%humdrum-veritas-data 3665149481
%%linebreak <none>
%%barnumbers 0
L: 1/4
M: 3/1
Q: 1/2=120
%%staves [1 2 3 4]
V: 1 clef=treble
V: 2 clef=treble-8
V: 3 clef=treble-8
V: 4 clef=bass
K: C
[V:1] F12- | 
[V:2] c12- | 
[V:3] F12 | 
[V:4] z12 | 
[V:1] F4A8 | 
[V:2] c12 | 
[V:3] F6F2A2_B2 | 
[V:4] z12 | 
[V:1] A4c6_B2 | 
[V:2] e12 | 
[V:3] c4G8 | 
[V:4] C,12 | 
[V:1] G8G4- | 
[V:2] e4g6f2 | 
[V:3] z4c8 | 
[V:4] C,6C,2E,2F,2 | 
[V:1] G4z4A4 | 
[V:2] d12 | 
[V:3] _B4A8 | 
[V:4] G,4D,8 | 
[V:1] _B8d2cB | 
[V:2] d12 | 
[V:3] G4G8 | 
[V:4] z4G,8 | 
[V:1] A4G8 | 
[V:2] z4e8 | 
[V:3] A4c8 | 
[V:4] F,4E,8 | 
[V:1] _B4A4z4 | 
[V:2] f8a2gf | 
[V:3] d6f4ed | 
[V:4] D,4D,8 | 
[V:1] G2c2d2=B4A=B | 
[V:2] e4d8 | 
[V:3] c2g4e2d4 | 
[V:4] E,4G,8 | 
[V:1] c8A4 | 
[V:2] f4e4z4 | 
[V:3] z2c4A4F2 | 
[V:4] A,6C4B,A, | 
[V:1] _B4A4c4 | 
[V:2] d2g2a2f4ef | 
[V:3] G4F3GA4 | 
[V:4] G,2D4B,2A,4 | 
[V:1] _B8G4 | 
[V:2] g8e4 | 
[V:3] G8c4 | 
[V:4] z2G,4E,4C,2 | 
[V:1] z4G8 | 
[V:2] f4e4g4 | 
[V:3] _B4c8 | 
[V:4] D,4C,3D,E,4 | 
[V:1] _B4A2F2G4 | 
[V:2] f8d4 | 
[V:3] d4c2A2_B4 | 
[V:4] D,8G,4 | 
[V:1] A4_B8 | 
[V:2] z4d8 | 
[V:3] z2A2G2_B4AG | 
[V:4] F,4G,8 | 
[V:1] A4_B2c2A4 | 
[V:2] f4e2c2d4 | 
[V:3] F4z4F4 | 
[V:4] A,4G,2E,2F,4 | 
[V:1] G4z2c4d2 | 
[V:2] e4f8 | 
[V:3] G4F4A2_B2 | 
[V:4] z2E,2D,2F,4E,D, | 
[V:1] e2c2d4e4 | 
[V:2] e4f2g2e4 | 
[V:3] c4_B4c4 | 
[V:4] C,4z4C,4 | 
[V:1] f4e2c2_B2d2- | 
[V:2] d4z2g4a2 | 
[V:3] F4c4z2d2- | 
[V:4] D,4C,4E,2F,2 | 
[V:1] d2_B2A4z4 | 
[V:2] _b2g2a4_b4 | 
[V:3] d2e2f4d4 | 
[V:4] G,4F,4G,4 | 
[V:1] z12 | 
[V:2] c'4_b2g2f2a2- | 
[V:3] c2A2G2_B4c2 | 
[V:4] C,4G,4z2A,2- | 
[V:1] z12 | 
[V:2] a2f2e4z4 | 
[V:3] d4c4F2c2 | 
[V:4] A,2B,2C4A,4 | 
[V:1] z12 | 
[V:2] z12 | 
[V:3] d2e2f4d2_B2 | 
[V:4] G,2E,2D,2F,4G,2 | 
[V:1] z12 | 
[V:2] z12 | 
[V:3] c4_B4z2_B2 | 
[V:4] A,4G,4C,2G,2 | 
[V:1] A4G4c4 | 
[V:2] z12 | 
[V:3] c2d2e2c4f2- | 
[V:4] A,2B,2C4A,2F,2 | 
[V:1] _B4A4G2A2 | 
[V:2] z12 | 
[V:3] feedf4c4 | 
[V:4] G,4F,4z2F,2 | 
[V:1] _B2c2z2d4e2 | 
[V:2] e4d4g4 | 
[V:3] z2c2d4_B2c2 | 
[V:4] G,2A,2_B,2G,4C2- | 
[V:1] f2d2e3c=B2c2 | 
[V:2] f4e4d2e2 | 
[V:3] d4c2g4e2 | 
[V:4] CB,B,A,C4G,4 | 
[V:1] d=B2Ac8 | 
[V:2] f2g2z2a4_b2 | 
[V:3] d4c4z4 | 
[V:4] z2G,2A,4F,2G,2 | 
[V:1] z4d8 | 
[V:2] c'2a2_b3gf2g2 | 
[V:3] F4G4_B4 | 
[V:4] A,4G,2D4_B,2 | 
[V:1] c4_B4c3B | 
[V:2] af2eg8 | 
[V:3] c4d4_e4 | 
[V:4] A,4G,4z4 | 
[V:1] G4F8 | 
[V:2] z4a8 | 
[V:3] _e4d8 | 
[V:4] C,4D,4F,4 | 
[V:1] _B4A2c2B2G2- | 
[V:2] g4f4g3f | 
[V:3] d4c3_BG3A | 
[V:4] G,4A,4_B,4 | 
[V:1] G2FGA8- | 
[V:2] d4c8 | 
[V:3] _B4F8 | 
[V:4] _B,4A,8 | 
[V:1] A4_B4A4- | 
[V:2] f4e2g2f2d2- | 
[V:3] F4G4A4- | 
[V:4] A,4G,3F,D,3E, | 
[V:1] A4z4G4 | 
[V:2] d2cde8- | 
[V:3] A4G4c4- | 
[V:4] F,4C,8 | 
[V:1] c4A4c3_B | 
[V:2] e4f4e4- | 
[V:3] c4F4z2c2- | 
[V:4] C,4D,4E,4- | 
[V:1] G4A2_B3cd2- | 
[V:2] e4z4d4 | 
[V:3] c2_B2d6_B2 | 
[V:4] E,4D,4G,4- | 
[V:1] d2G4c2=B2=B2- | 
[V:2] g4e4g3f | 
[V:3] _B4c4d4- | 
[V:4] G,4C,4z2G,2- | 
[V:1] B2A=Bc6A2 | 
[V:2] d4e2f3ga2- | 
[V:3] d4c4F4 | 
[V:4] G,2F,2A,6F,2 | 
[V:1] A4_B4c4 | 
[V:2] a2d4g2f2f2- | 
[V:3] f4d4c4- | 
[V:4] F,4G,4A,4- | 
[V:1] c4d4c4 | 
[V:2] f2efg6e2 | 
[V:3] c4_B4z2c2- | 
[V:4] A,4G,4C,4 | 
[V:1] c8_B4 | 
[V:2] e4f4g4 | 
[V:3] c_BAGF2c2d2_e2- | 
[V:4] C4A,4G,4- | 
[V:1] _B4A4z4 | 
[V:2] g4a4g4 | 
[V:3] e2d2f4_B3c | 
[V:4] G,4F,4z2G,2- | 
[V:1] z4z4F4- | 
[V:2] g8f4 | 
[V:3] d4_e4d4- | 
[V:4] G,F,E,D,C,2G,2A,2_B,2- | 
[V:1] F4G2A2c2_B2- | 
[V:2] f4e4z4 | 
[V:3] d4c2A4_B2 | 
[V:4] B,2A,2C4F,3G, | 
[V:1] BAA4G2A4 | 
[V:2] z4z4c4- | 
[V:3] c2F3DE2F4- | 
[V:4] A,4_B,4A,4- | 
[V:1] F4z2G4A2 | 
[V:2] c4d2e2g2f2- | 
[V:3] F4_B4c2F2 | 
[V:4] A,4G,2E,4F,2 | 
[V:1] G2E2F4z2G2 | 
[V:2] fee4d2e4 | 
[V:3] _B2c2d4c3_B/A/ | 
[V:4] G,2C,3A,,B,,2C,4- | 
[V:1] G4A4_B2G2 | 
[V:2] c4z2d4e2 | 
[V:3] G4F4_B2c2 | 
[V:4] C,4F,4G,2C,2 | 
[V:1] F2_B4A2B2G2 | 
[V:2] d2_B2c4z2d2 | 
[V:3] d4c4_B4 | 
[V:4] F,2G,2A,4G,3F,/E,/ | 
[V:1] F4z2G2F2A2- | 
[V:2] d4e4f2d2 | 
[V:3] z2_B2c4F4- | 
[V:4] D,4C,4F,2G,2 | 
[V:1] A2c2_B2G2A4 | 
[V:2] c2f4e2f2d2 | 
[V:3] F4z2_B2c2F2- | 
[V:4] A,4G,4F,4 | 
[V:1] A4_B4c4 | 
[V:2] c4z2d2c2e2- | 
[V:3] F2A2G4z2c2 | 
[V:4] z2F,2G,4C,4- | 
[V:1] z4A4G4 | 
[V:2] e2g2f2d2e4 | 
[V:3] G2c4A2_B2c2- | 
[V:4] C,4z2F,2G,2C,2- | 
[V:1] G4A4D4 | 
[V:2] e4f4g4 | 
[V:3] c_BAGF4_B3G | 
[V:4] C,2E,2D,4z2G,2 | 
[V:1] z2G4G2A2G2- | 
[V:2] z4e4d4 | 
[V:3] A2_B2G2c2A2_B2- | 
[V:4] D,2G,4E,2F,2G,2- | 
[V:1] GFF4E2F4 | 
[V:2] d4e4A4 | 
[V:3] BcF2G4F4 | 
[V:4] G,F,E,D,C,4F,3D, | 
[V:1] G2F2A2_B2G2A2 | 
[V:2] z2d4d2e2d2- | 
[V:3] _B2A2d2_B2c2A2 | 
[V:4] E,2F,2D,2G,2E,2F,2- | 
[V:1] F2EG2FF3EED | 
[V:2] dcc4B2c4- | 
[V:3] _B2c2F4G4 | 
[V:4] F,G,C,2D,4C,4 | 
[V:1] F12 ||  
[V:2] c12 ||  
[V:3] F12 ||  
[V:4] F,12 ||  
[V:1]  [K:C] [K:clef=treble][M:2/1]F8 | 
[V:2]  [K:C] [K:clef=treble-8][M:2/1]z8 | 
[V:3]  [K:C] [K:clef=treble-8][M:2/1]_B8- | 
[V:4]  [K:C] [K:clef=bass][M:2/1]z8 | 
[V:1] D4G4- | 
[V:2] z8 | 
[V:3] B8 | 
[V:4] z8 | 
[V:1] G2F2F4 | 
[V:2] z8 | 
[V:3] _B8 | 
[V:4] z8 | 
[V:1] G4_B4- | 
[V:2] z8 | 
[V:3] _E8 | 
[V:4] z8 | 
[V:1] B2AGF4 | 
[V:2] z8 | 
[V:3] z4_B4 | 
[V:4] z8 | 
[V:1] G6FG | 
[V:2] z8 | 
[V:3] _B8 | 
[V:4] z8 | 
[V:1] A3_Bc4 | 
[V:2] z8 | 
[V:3] F4A4 | 
[V:4] z8 | 
[V:1] _B4A2F2 | 
[V:2] z8 | 
[V:3] G4F2_B2- | 
[V:4] z8 | 
[V:1] G4F4 | 
[V:2] z8 | 
[V:3] B2c2d4 | 
[V:4] z8 | 
[V:1] _B,2C2B,2F2- | 
[V:2] z8 | 
[V:3] d2c2d4 | 
[V:4] z8 | 
[V:1] F_EDC_B,4 | 
[V:2] z8 | 
[V:3] _e4d2f2- | 
[V:4] z8 | 
[V:1] F2G2A2_B2- | 
[V:2] z8 | 
[V:3] fd_e2f2d2 | 
[V:4] z8 | 
[V:1] B2A2_B4 | 
[V:2] z8 | 
[V:3] c4z2d2- | 
[V:4] z8 | 
[V:1] A3FG2A2- | 
[V:2] z8 | 
[V:3] dcA2_B2A2 | 
[V:4] z8 | 
[V:1] AG/F/E2F2A2 | 
[V:2] z8 | 
[V:3] c4z2F2- | 
[V:4] z8 | 
[V:1] G4C2F2 | 
[V:2] z8 | 
[V:3] F2E2F2A2 | 
[V:4] z8 | 
[V:1] G2A4G2- | 
[V:2] z8 | 
[V:3] G2c3A_B2 | 
[V:4] z8 | 
[V:1] GFF4E2 | 
[V:2] z8 | 
[V:3] F4G4 | 
[V:4] z8 | 
[V:1] F8- | 
[V:2] c8 | 
[V:3] F8 | 
[V:4] F,8- | 
[V:1] F8 | 
[V:2] A4d4- | 
[V:3] z8 | 
[V:4] F,8 | 
[V:1] z4F4- | 
[V:2] d2c2c4 | 
[V:3] A8 | 
[V:4] F,8 | 
[V:1] F2G2_B4 | 
[V:2] d4f4- | 
[V:3] _B4_B4 | 
[V:4] _B,,8 | 
[V:1] A8- | 
[V:2] f2edc4 | 
[V:3] F8 | 
[V:4] z4F,4 | 
[V:1] A8 | 
[V:2] d6cd | 
[V:3] z4F4 | 
[V:4] F,8 | 
[V:1] G8 | 
[V:2] e3fg4 | 
[V:3] c4_B2G2 | 
[V:4] C,4E,4 | 
[V:1] z8 | 
[V:2] f4e2c2 | 
[V:3] A2_B2c4 | 
[V:4] D,4C,2F,2- | 
[V:1] z8 | 
[V:2] d4c4 | 
[V:3] _B4z2c2- | 
[V:4] F,2G,2A,4 | 
[V:1] z8 | 
[V:2] F2G2F2c2- | 
[V:3] c2_B2c2A2 | 
[V:4] A,2G,2A,4 | 
[V:1] z8 | 
[V:2] c_BAGF4 | 
[V:3] G4z2A2- | 
[V:4] _B,4A,2C2- | 
[V:1] z8 | 
[V:2] c2d2e2f2- | 
[V:3] AF_B2A2F2 | 
[V:4] CA,_B,2C2A,2 | 
[V:1] z8 | 
[V:2] f2e2f4 | 
[V:3] G4F4 | 
[V:4] G,4z2A,2- | 
[V:1] z8 | 
[V:2] e3cd2e2- | 
[V:3] z8 | 
[V:4] A,G,E,2F,2E,2 | 
[V:1] z8 | 
[V:2] ed/c/B2c2e2 | 
[V:3] z8 | 
[V:4] G,4z2C,2- | 
[V:1] z8 | 
[V:2] d4G2c2 | 
[V:3] z8 | 
[V:4] C,2B,,2C,2E,2 | 
[V:1] z8 | 
[V:2] d2e4d2- | 
[V:3] z8 | 
[V:4] D,2G,3E,F,2 | 
[V:1] z8 | 
[V:2] dcc4B2 | 
[V:3] z8 | 
[V:4] C,4D,4 | 
[V:1] G8 | 
[V:2] c8- | 
[V:3] z4E4 | 
[V:4] C,8 | 
[V:1] A4c4 | 
[V:2] c8 | 
[V:3] F4A4 | 
[V:4] z8 | 
[V:1] _B4G4 | 
[V:2] z4c4- | 
[V:3] G8 | 
[V:4] E,8 | 
[V:1] z4A4 | 
[V:2] c2d2f4 | 
[V:3] z4F4 | 
[V:4] F,4F,4 | 
[V:1] G4c4 | 
[V:2] e8- | 
[V:3] c6_BA | 
[V:4] C,8 | 
[V:1] _B4c4 | 
[V:2] e8 | 
[V:3] G4c4 | 
[V:4] z4C,4 | 
[V:1] d3ef4 | 
[V:2] d8 | 
[V:3] _B3cd4 | 
[V:4] G,4F,2D,2 | 
[V:1] e2d4_B2 | 
[V:2] z8 | 
[V:3] z2d4e2 | 
[V:4] E,2F,2G,4 | 
[V:1] A4_B2d2- | 
[V:2] z8 | 
[V:3] f4_B4 | 
[V:4] F,4z2G,2- | 
[V:1] dcA2_B2G2 | 
[V:2] z8 | 
[V:3] z2f2d2e2 | 
[V:4] G,2F,2G,2E,2 | 
[V:1] F4z4 | 
[V:2] z8 | 
[V:3] f2d2c2_B2 | 
[V:4] D,4z2_E,2- | 
[V:1] z8 | 
[V:2] z8 | 
[V:3] _e2d3cc2- | 
[V:4] E,C,F,2_E,2C,2 | 
[V:1] F4E4 | 
[V:2] z8 | 
[V:3] c2=B2c4 | 
[V:4] D,4C,4 | 
[V:1] F4G4 | 
[V:2] z8 | 
[V:3] d4e4 | 
[V:4] z8 | 
[V:1] A4_B4 | 
[V:2] z8 | 
[V:3] d4g4 | 
[V:4] z8 | 
[V:1] A4F2G2 | 
[V:2] z8 | 
[V:3] f2d4e2 | 
[V:4] z8 | 
[V:1] F2_B3cd2- | 
[V:2] z8 | 
[V:3] f2_B4f2- | 
[V:4] z8 | 
[V:1] d2_B4A2 | 
[V:2] z8 | 
[V:3] fd_e2c4 | 
[V:4] z8 | 
[V:1] _B8 | 
[V:2] d8 | 
[V:3] _B8 | 
[V:4] z4_B,,4 | 
[V:1] G4G4 | 
[V:2] e4g4 | 
[V:3] z4c4 | 
[V:4] C,4_E,4 | 
[V:1] z4A4 | 
[V:2] f4d4 | 
[V:3] d2e2f4 | 
[V:4] D,8 | 
[V:1] _B4c4 | 
[V:2] z4e4 | 
[V:3] _e2d2c4 | 
[V:4] z4C,4 | 
[V:1] d4_B2G2 | 
[V:2] d4g4 | 
[V:3] _B8 | 
[V:4] G,6F,E, | 
[V:1] A4_B4 | 
[V:2] f4g4 | 
[V:3] z2f2d2e2 | 
[V:4] D,4G,4 | 
[V:1] A4z4 | 
[V:2] a3_bc'4 | 
[V:3] f6e2 | 
[V:4] F,3G,A,4 | 
[V:1] z8 | 
[V:2] _b2a4f2 | 
[V:3] c4d4 | 
[V:4] z2A,4B,2 | 
[V:1] z8 | 
[V:2] e4f2a2- | 
[V:3] c8 | 
[V:4] C4F,4 | 
[V:1] z8 | 
[V:2] age2f2d2 | 
[V:3] z4f4 | 
[V:4] z2C2A,2B,2 | 
[V:1] z8 | 
[V:2] c4z4 | 
[V:3] e2c2d3c | 
[V:4] C2A,2G,2F,2 | 
[V:1] z8 | 
[V:2] z8 | 
[V:3] d2c3G_B2 | 
[V:4] _B,2A,3G,G,2- | 
[V:1] z4G4 | 
[V:2] c4B4 | 
[V:3] A4G4 | 
[V:4] G,2^F,2G,4 | 
[V:1] F4G4 | 
[V:2] c4d4 | 
[V:3] z8 | 
[V:4] A,4B,4 | 
[V:1] A4z2_B2 | 
[V:2] e4f4 | 
[V:3] z8 | 
[V:4] A,4D4 | 
[V:1] c4F4 | 
[V:2] e4c2d2 | 
[V:3] z8 | 
[V:4] C2A,4B,2 | 
[V:1] z4c4- | 
[V:2] c2f3ga2- | 
[V:3] z4F4- | 
[V:4] C2F,4C2- | 
[V:1] c2d4c2 | 
[V:2] a2f4e2 | 
[V:3] F2D2E4 | 
[V:4] CA,_B,2G,4 | 
[V:1] A6F2 | 
[V:2] f8 | 
[V:3] z4F4 | 
[V:4] F,8 | 
[V:1] G4_B4 | 
[V:2] d4d4 | 
[V:3] _B6A2 | 
[V:4] z4G,4 | 
[V:1] A4G4 | 
[V:2] z4e4 | 
[V:3] F4z2c2 | 
[V:4] A,2B,2C4 | 
[V:1] z2c2_B4 | 
[V:2] f4g4 | 
[V:3] d2f4e2 | 
[V:4] _B,2A,2G,4 | 
[V:1] A6F2 | 
[V:2] a4f2d2 | 
[V:3] f8 | 
[V:4] F,8 | 
[V:1] G4F4 | 
[V:2] e4f4 | 
[V:3] e2c2d4 | 
[V:4] z2C2A,2B,2 | 
[V:1] z2G2A2D2- | 
[V:2] e4z4 | 
[V:3] c4z4 | 
[V:4] C6B,2 | 
[V:1] D2G4F2 | 
[V:2] z8 | 
[V:3] _B4c3d | 
[V:4] G,4A,4 | 
[V:1] G3A_B4 | 
[V:2] z8 | 
[V:3] _e2d4g2- | 
[V:4] G,8 | 
[V:1] G2A2G2c2 | 
[V:2] z8 | 
[V:3] gef2c2e2 | 
[V:4] z4C4 | 
[V:1] d2_B2c4 | 
[V:2] z8 | 
[V:3] d4c4 | 
[V:4] _B,2G,2A,3G, | 
[V:1] z4z2F2 | 
[V:2] z8 | 
[V:3] f2e3dd2 | 
[V:4] A,2G,3D,F,2 | 
[V:1] G2E2F4 | 
[V:2] z4d4 | 
[V:3] z2g2f2d2 | 
[V:4] E,4D,4 | 
[V:1] G2E2D4 | 
[V:2] c4d4 | 
[V:3] _e2c2_B4 | 
[V:4] z8 | 
[V:1] C4F2F2- | 
[V:2] e4z2f2 | 
[V:3] z2c2d2_B2- | 
[V:4] z8 | 
[V:1] FDE2F4- | 
[V:2] g4c4 | 
[V:3] B2AGF4 | 
[V:4] z8 | 
[V:1] F2D2E4 | 
[V:2] z4g4- | 
[V:3] _B4c4- | 
[V:4] z4C,4- | 
[V:1] G2F2D4 | 
[V:2] g2a4g2 | 
[V:3] c4_B4 | 
[V:4] C,2A,,2_B,,4 | 
[V:1] C4G4 | 
[V:2] e6c2 | 
[V:3] c8 | 
[V:4] z4C,4 | 
[V:1] A6G2 | 
[V:2] d4f4 | 
[V:3] z2F2A2_B2 | 
[V:4] F,6E,2 | 
[V:1] G6F2 | 
[V:2] e4d4 | 
[V:3] c4_B4 | 
[V:4] C,4z2G,2 | 
[V:1] E4D4 | 
[V:2] z2g2f4 | 
[V:3] c4d4 | 
[V:4] A,2C4B,2 | 
[V:1] C4E4 | 
[V:2] e6c2 | 
[V:3] z2g4e2 | 
[V:4] C8 | 
[V:1] F2G2z2c2- | 
[V:2] d4c4 | 
[V:3] d2_B2c4 | 
[V:4] B,2G,2A,4 | 
[V:1] c2=B2c4 | 
[V:2] z2d2e2A2- | 
[V:3] d4c4 | 
[V:4] G,4z4 | 
[V:1] A4G4 | 
[V:2] A2d4c2 | 
[V:3] f4z2e2 | 
[V:4] F,4G,3A, | 
[V:1] F3GA2_B2 | 
[V:2] d3ef4 | 
[V:3] d2f4_B2- | 
[V:4] _B,2A,4D2- | 
[V:1] G2A2z2d2 | 
[V:2] d2e2d2g2 | 
[V:3] B2A2_B4 | 
[V:4] D_B,C2G,2B,2 | 
[V:1] c2A2_B3A/G/ | 
[V:2] a2f2g4 | 
[V:3] z2c2d3_B | 
[V:4] A,4G,4 | 
[V:1] F2G4A2- | 
[V:2] z4z2c2 | 
[V:3] A2_B2G2F2- | 
[V:4] C2_B,3A,A,2 | 
[V:1] A2GFE2F2 | 
[V:2] d2B2c4 | 
[V:3] F2G2A2F2- | 
[V:4] z2D2C2A,2 | 
[V:1] G4C2F2- | 
[V:2] d2B2A4 | 
[V:3] FDE2F4 | 
[V:4] _B,2G,2F,4 | 
[V:1] FDE2F4- | 
[V:2] G4c2c2- | 
[V:3] G4F4 | 
[V:4] z2G,2A,2F,2- | 
[V:1] F4E2C2 | 
[V:2] cAB2c4- | 
[V:3] z6G2 | 
[V:4] F,2E,D,C,4 | 
[V:1] z2c2_B2G2- | 
[V:2] c2A2_B4 | 
[V:3] A4G4 | 
[V:4] F,4G,4- | 
[V:1] G2FGA4 | 
[V:2] d2c2A4 | 
[V:3] _B4c4 | 
[V:4] G,4F,4 | 
[V:1] z4G4 | 
[V:2] G4d4 | 
[V:3] _B2_B4A_B | 
[V:4] G,8 | 
[V:1] A2c2_B2d2- | 
[V:2] e6d2 | 
[V:3] c4z2f2 | 
[V:4] z2C,2E,2F,2 | 
[V:1] d2c_BA4 | 
[V:2] d6c2 | 
[V:3] d3ef4 | 
[V:4] G,4F,4 | 
[V:1] z2d2c2A2 | 
[V:2] B4A4 | 
[V:3] d4z2c2 | 
[V:4] G,4A,4 | 
[V:1] _B2G2F2G2 | 
[V:2] G4B4 | 
[V:3] d8 | 
[V:4] z2D4B,2 | 
[V:1] A4G4 | 
[V:2] c2d2z2g2- | 
[V:3] e2f2d2_B2 | 
[V:4] A,2F,2G,4 | 
[V:1] z2c2=B=B2A | 
[V:2] g2f2g4 | 
[V:3] c4d4 | 
[V:4] A,4G,4 | 
[V:1] c4F2G2 | 
[V:2] e4d4 | 
[V:3] c2A4_B2 | 
[V:4] C4z2_B,2 | 
[V:1] A3_Bc4 | 
[V:2] c3de2f2 | 
[V:3] c2F2z2A2 | 
[V:4] A,2C4F,2- | 
[V:1] _B4A2F2 | 
[V:2] d2e2z2a2 | 
[V:3] G4F2D2 | 
[V:4] F,2E,2F,4 | 
[V:1] G4C3D | 
[V:2] g2e2f3e/d/ | 
[V:3] C4F4 | 
[V:4] z2G,2A,3F, | 
[V:1] E2D2F2G2 | 
[V:2] c2d4e2- | 
[V:3] G2A2_B2c2 | 
[V:4] E,2F,2D,2C,2- | 
[V:1] A4G2c2- | 
[V:2] e2dcB2c2 | 
[V:3] z2F2G4 | 
[V:4] C,2D,2E,2C,2- | 
[V:1] c2_B2G3A- | 
[V:2] d4G2c2- | 
[V:3] A2F2c4 | 
[V:4] C,A,,_B,,2C,4 | 
[V:1] AFF4E2 | 
[V:2] cAB2c4- | 
[V:3] F4G4 | 
[V:4] D,4C,4 | 
[V:1] F8 |]  
[V:2] c8 |]  
[V:3] F8 |]  
[V:4] F,,8 |]  



